; generated by Slic3r 1.3.1-dev (Build 18ddd3a36dc69d81fb9b7440498bff9e1dde8b7e) on 2023-01-23 at 14:59:05

; external perimeters extrusion width = 0.44mm (0.00mm^3/s)
; perimeters extrusion width = 0.48mm (0.00mm^3/s)
; infill extrusion width = 0.48mm (0.63mm^3/s)
; solid infill extrusion width = 0.48mm (0.25mm^3/s)
; top infill extrusion width = 0.48mm (0.25mm^3/s)

G92 E0
M104 S20 ; set temperature
;G28 ; home all axes
g1 z25 f5000
g28 x0
g28 y0
;G1 Z5 F5000 ; lift nozzle
G1 X13 Y5 F4000
G28 Z0

; Filament gcode

M109 S20 ; set temperature and wait for it to be reached
G21 ; set units to millimeters
G90 ; use absolute coordinates
M82 ; use absolute distances for extrusion
G92 E0
G1 Z0.300 F3000.000
G1 X10.326 Y8.541 F3000.000
G1 F120.000
G1 X10.786 Y8.016 E0.00198
G1 X11.254 Y7.550 E0.00384
G1 X11.656 Y7.199 E0.00536
G1 X12.221 Y6.769 E0.00737
G1 X13.002 Y6.273 E0.00999
G1 X13.438 Y6.042 E0.01139
G1 X14.073 Y5.753 E0.01336
G1 X14.592 Y5.555 E0.01493
G1 X15.234 Y5.352 E0.01684
G1 X16.084 Y5.153 E0.01931
G1 X16.726 Y5.052 E0.02115
G1 X17.339 Y4.993 E0.02290
G1 X17.940 Y4.967 E0.02460
G1 X18.556 Y4.974 E0.02634
G1 X19.176 Y5.015 E0.02810
G1 X19.842 Y5.100 E0.03000
G1 X20.485 Y5.225 E0.03186
G1 X20.934 Y5.339 E0.03317
G1 X21.814 Y5.629 E0.03579
G1 X22.279 Y5.823 E0.03722
G1 X22.925 Y6.143 E0.03926
G1 X23.685 Y6.604 E0.04178
G1 X24.132 Y6.926 E0.04334
G1 X24.671 Y7.372 E0.04532
G1 X25.330 Y8.024 E0.04795
G1 X25.684 Y8.437 E0.04949
G1 X26.109 Y9.005 E0.05150
G1 X26.587 Y9.775 E0.05406
G1 X26.889 Y10.366 E0.05594
G1 X27.156 Y10.987 E0.05786
G1 X27.371 Y11.594 E0.05968
G1 X27.528 Y12.129 E0.06126
G1 X27.672 Y12.735 E0.06302
G1 X27.824 Y13.667 E0.06570
G1 X27.895 Y14.488 E0.06803
G1 X27.915 Y15.111 E0.06979
G1 X28.010 Y22.018 E0.08936
G1 X27.981 Y22.968 E0.09205
G1 X27.868 Y23.961 E0.09488
G1 X27.734 Y24.640 E0.09684
G1 X27.630 Y25.044 E0.09802
G1 X27.477 Y25.544 E0.09950
G1 X27.315 Y25.987 E0.10083
G1 X26.935 Y26.816 E0.10342
G1 X26.679 Y27.269 E0.10489
G1 X26.433 Y27.651 E0.10618
G1 X26.034 Y28.185 E0.10806
G1 X25.635 Y28.636 E0.10977
G1 X25.202 Y29.056 E0.11148
G1 X24.565 Y29.565 E0.11379
G1 X24.055 Y29.898 E0.11551
G1 X23.463 Y30.216 E0.11741
G1 X22.823 Y30.488 E0.11938
G1 X22.097 Y30.715 E0.12154
G1 X21.309 Y30.871 E0.12381
G1 X20.396 Y30.944 E0.12641
G1 X15.785 Y31.034 E0.13947
G1 X15.230 Y31.022 E0.14104
G1 X14.708 Y30.973 E0.14252
G1 X13.924 Y30.826 E0.14478
G1 X13.266 Y30.633 E0.14672
G1 X12.579 Y30.355 E0.14882
G1 X11.977 Y30.041 E0.15074
G1 X11.370 Y29.647 E0.15279
G1 X10.830 Y29.218 E0.15474
G1 X10.304 Y28.712 E0.15681
G1 X9.921 Y28.273 E0.15846
G1 X9.588 Y27.832 E0.16003
G1 X9.331 Y27.441 E0.16135
G1 X9.032 Y26.915 E0.16306
G1 X8.823 Y26.481 E0.16443
G1 X8.625 Y25.998 E0.16591
G1 X8.467 Y25.540 E0.16728
G1 X8.283 Y24.871 E0.16924
G1 X8.182 Y24.403 E0.17060
G1 X8.070 Y23.679 E0.17267
G1 X8.007 Y22.912 E0.17485
G1 X7.990 Y22.163 E0.17698
G1 X8.093 Y14.750 E0.19797
G1 X8.166 Y13.788 E0.20070
G1 X8.261 Y13.140 E0.20255
G1 X8.460 Y12.233 E0.20518
G1 X8.657 Y11.580 E0.20712
G1 X8.919 Y10.892 E0.20920
G1 X9.189 Y10.307 E0.21103
G1 X9.402 Y9.905 E0.21231
G1 X9.763 Y9.311 E0.21428
G1 X10.289 Y8.588 E0.21681
G92 E0
G1 X16.128 Y23.903 F3000.000
G1 F120.000
G1 X15.891 Y24.125 E0.00092
G1 X15.781 Y24.180 E0.00127
G1 X15.695 Y24.196 E0.00152
G1 X15.562 Y24.189 E0.00189
G1 X15.398 Y24.122 E0.00240
G1 X15.259 Y24.000 E0.00292
G1 X15.127 Y23.816 E0.00356
G1 X15.025 Y23.589 E0.00427
G1 X15.223 Y23.433 E0.00498
G1 X15.570 Y23.705 E0.00623
G1 X15.846 Y23.828 E0.00708
G1 X16.070 Y23.887 E0.00774
G1 X15.827 Y24.026 F3000.000
G1 X15.323 Y22.988 F3000.000
G1 F120.000
G1 X14.907 Y22.862 E0.00916
G1 X14.869 Y22.566 E0.01014
G1 X14.859 Y22.251 E0.01117
G1 X14.881 Y21.937 E0.01220
G1 X14.903 Y21.927 E0.01228
G1 F120.000
G1 X14.947 Y21.906 E0.01242
G1 F120.000
G1 X14.992 Y21.884 E0.01253
G1 F120.000
G1 X15.266 Y21.765 E0.01311
G1 X14.927 Y21.223 F3000.000
G1 F120.000
G1 X15.040 Y20.830 E0.01427
G1 X15.152 Y20.578 E0.01506
G1 X15.289 Y20.352 E0.01580
G1 X15.451 Y20.161 E0.01651
G1 X15.643 Y20.000 E0.01722
G1 X15.861 Y19.870 E0.01794
G1 X16.110 Y19.782 E0.01869
G1 X16.402 Y19.736 E0.01953
G1 X16.673 Y19.734 E0.02029
G1 X16.869 Y19.766 E0.02085
G1 X17.033 Y19.826 E0.02135
G1 X17.261 Y19.972 E0.02212
G1 X17.456 Y20.159 E0.02288
G1 X17.559 Y20.299 E0.02337
G1 X17.698 Y20.559 E0.02421
G1 X17.809 Y20.849 E0.02509
G1 X17.874 Y21.100 E0.02582
G1 X17.665 Y21.223 E0.02651
G1 X17.475 Y21.042 E0.02725
G1 X17.293 Y20.918 E0.02788
G1 X17.000 Y20.794 E0.02878
G1 X16.592 Y20.738 E0.02995
G1 X16.286 Y20.752 E0.03081
G1 X15.904 Y20.823 E0.03191
G1 X15.593 Y20.954 E0.03287
G1 X15.396 Y21.088 E0.03354
G1 X15.144 Y21.349 E0.03457
G1 X14.979 Y21.253 E0.03511
G1 X15.158 Y20.897 F3000.000
G92 E0
G1 X17.823 Y21.414 F3000.000
G1 F120.000
G1 X18.475 Y21.465 E0.00185
G1 X18.103 Y22.101 E0.00394
G1 X17.846 Y21.469 E0.00587
G1 X17.597 Y21.743 F3000.000
G1 X18.484 Y22.044 F3000.000
G1 F120.000
G1 X18.067 Y23.304 E0.00665
G1 X18.037 Y22.995 F3000.000
G1 F120.000
G1 X18.082 Y23.040 E0.00679
G1 X18.137 Y23.034 E0.00692
G1 X18.274 Y22.761 E0.00762
G1 F120.000
G1 X18.411 Y22.488 E0.00819
G1 X17.894 Y22.586 F3000.000
G1 F120.000
G1 X17.871 Y22.468 E0.00826
G1 X17.894 Y22.586 F3000.000
G1 F120.000
G1 X17.941 Y22.824 E0.00849
G1 F120.000
G1 X17.989 Y22.909 E0.00864
G1 F120.000
G1 X18.037 Y22.995 E0.00883
G92 E0
G1 X21.044 Y23.058 F3000.000
G1 F120.000
G1 X21.177 Y22.282 E0.00222
G1 X21.172 Y21.946 E0.00318
G1 X21.075 Y21.261 E0.00513
G92 E0
G1 X18.489 Y21.402 F3000.000
G1 F120.000
G1 X18.660 Y20.987 E0.00127
G1 X18.797 Y20.726 E0.00211
G1 X19.015 Y20.429 E0.00315
G1 X19.260 Y20.212 E0.00408
G1 X19.545 Y20.061 E0.00499
G1 X19.841 Y19.996 E0.00585
G1 X20.021 Y19.998 E0.00636
G1 X20.198 Y20.027 E0.00686
G1 X20.355 Y20.085 E0.00734
G1 X20.497 Y20.168 E0.00780
G1 X20.705 Y20.356 E0.00860
G1 X20.820 Y20.509 E0.00914
G1 X20.921 Y20.699 E0.00975
G1 X21.009 Y20.921 E0.01043
G1 X21.100 Y21.245 E0.01138
G1 X20.897 Y21.373 E0.01206
G1 X20.639 Y21.177 E0.01298
G1 X20.335 Y21.054 E0.01391
G1 X19.988 Y20.995 E0.01490
G1 X19.785 Y20.988 E0.01548
G1 X19.455 Y21.010 E0.01641
G1 X19.236 Y21.054 E0.01705
G1 X19.026 Y21.122 E0.01767
G1 X18.543 Y21.375 E0.01922
G1 X18.728 Y21.081 F3000.000
G92 E0
G1 X19.739 Y23.338 F3000.000
G1 F120.000
G1 X19.912 Y23.327 E0.00049
G1 X20.383 Y23.235 E0.00185
G1 X20.727 Y23.070 E0.00293
G1 X20.871 Y22.949 E0.00346
G1 X21.069 Y23.075 E0.00413
G1 X20.982 Y23.411 E0.00511
G1 X20.812 Y23.760 E0.00621
G1 X20.622 Y23.980 E0.00703
G1 X20.431 Y24.083 E0.00765
G1 X20.268 Y24.107 E0.00811
G1 X20.102 Y24.082 E0.00859
G1 X19.983 Y24.018 E0.00897
G1 X19.879 Y23.897 E0.00942
G1 X19.844 Y23.826 E0.00965
G1 X19.768 Y23.573 E0.01040
G1 X19.746 Y23.397 E0.01090
G1 X19.898 Y23.407 F3000.000
G92 E0
G1 X21.080 Y17.667 F3000.000
G1 F120.000
G1 X20.762 Y17.458 E0.00108
G1 X20.517 Y17.391 E0.00180
G1 X20.304 Y17.377 E0.00240
G1 X15.505 Y17.388 E0.01599
G1 X14.920 Y17.578 E0.01773
G1 X14.920 Y16.329 E0.02127
G1 X21.080 Y16.329 E0.03871
G1 X21.080 Y17.607 E0.04233
G1 X21.396 Y17.457 F3000.000
G1 X21.093 Y16.329 F3000.000
G1 F120.000
G1 X21.078 Y15.087 E0.04583
G1 X21.040 Y14.725 E0.04685
G1 F120.000
G1 X20.993 Y14.490 E0.04759
G1 X21.256 Y14.007 E0.04929
G1 X20.899 Y13.817 F3000.000
G1 F120.000
G1 X20.656 Y13.939 E0.05005
G1 X20.567 Y13.818 E0.05048
G1 X20.330 Y13.585 E0.05142
G1 X20.051 Y13.390 E0.05238
G1 X19.735 Y13.234 E0.05338
G1 X19.383 Y13.115 E0.05444
G1 X18.996 Y13.033 E0.05556
G1 X18.572 Y12.983 E0.05676
G1 X17.886 Y12.972 E0.05871
G1 X17.234 Y13.034 E0.06056
G1 X16.829 Y13.120 E0.06173
G1 X16.454 Y13.236 E0.06284
G1 X15.963 Y13.472 E0.06439
G1 X15.672 Y13.680 E0.06540
G1 X15.533 Y13.809 E0.06594
G1 X15.306 Y14.078 E0.06693
G1 X15.075 Y13.949 E0.06768
G1 X15.153 Y13.707 E0.06840
G1 X15.333 Y13.304 E0.06965
G1 X15.552 Y12.954 E0.07082
G1 X15.810 Y12.651 E0.07195
G1 X16.102 Y12.396 E0.07305
G1 X16.436 Y12.185 E0.07417
G1 X16.608 Y12.101 E0.07471
G1 X17.004 Y11.955 E0.07590
G1 X17.427 Y11.856 E0.07713
G1 X17.880 Y11.807 E0.07842
G1 X18.370 Y11.807 E0.07981
G1 X18.596 Y11.826 E0.08045
G1 X19.034 Y11.905 E0.08171
G1 X19.422 Y12.034 E0.08287
G1 X19.764 Y12.208 E0.08396
G1 X20.065 Y12.424 E0.08501
G1 X20.326 Y12.682 E0.08605
G1 X20.549 Y12.988 E0.08712
G1 X20.736 Y13.344 E0.08826
G1 X20.881 Y13.760 E0.08950
G1 X20.629 Y13.789 F3000.000
G92 E0
G1 X15.147 Y13.989 F3000.000
G1 F120.000
G1 X14.984 Y14.654 E0.00222
G1 X14.947 Y14.899 E0.00302
G1 F120.000
G1 X14.917 Y15.266 E0.00411
G1 X14.912 Y16.329 E0.00725
G1 X15.501 Y17.389 F3000.000
G1 F120.000
G1 X14.907 Y18.125 E0.00891
G1 F120.000
G1 X14.871 Y18.174 E0.00904
G1 X14.869 Y18.655 E0.01007
G1 X14.620 Y18.360 F3000.000
G1 F120.000
G1 X15.720 Y17.318 E0.01078
G92 E0
G1 X17.350 Y12.589 F3000.000
G1 F120.000
G1 X16.950 Y12.677 E0.00139
G1 X16.735 Y12.757 E0.00217
G1 X16.944 Y12.712 E0.00290
G1 X17.257 Y12.682 E0.00397
G1 X17.767 Y12.172 E0.00642
G1 X18.118 Y12.134 E0.00762
G1 X18.702 Y12.146 E0.00960
G1 X18.195 Y12.653 E0.01204
G1 X19.015 Y12.742 F3000.000
G1 F120.000
G1 X19.432 Y12.325 E0.01404
G1 Z0.600 F3000.000
G92 E0
G1 X14.756 Y22.504 F3000.000
G1 F60.000
G1 X14.967 Y22.481 E0.00042
G1 X15.026 Y22.830 E0.00112
G1 X15.160 Y23.175 E0.00186
G1 X15.326 Y23.412 E0.00243
G1 X15.612 Y23.636 E0.00315
G1 X15.873 Y23.752 E0.00372
G1 X16.148 Y23.825 E0.00429
G1 X16.089 Y24.010 E0.00467
G1 X16.037 Y24.098 E0.00487
G1 X15.937 Y24.192 E0.00515
G1 X15.807 Y24.257 E0.00544
G1 X15.701 Y24.277 E0.00565
G1 X15.548 Y24.268 E0.00595
G1 X15.353 Y24.189 E0.00637
G1 X15.199 Y24.054 E0.00678
G1 X15.058 Y23.856 E0.00726
G1 X14.934 Y23.581 E0.00786
G1 X14.836 Y23.220 E0.00860
G1 X14.768 Y22.781 E0.00949
G1 X14.759 Y22.563 E0.00992
G1 X14.950 Y22.589 F3000.000
G92 E0
G1 X19.457 Y20.692 F3000.000
G1 F60.000
G1 X19.401 Y20.496 E0.00045
G1 X19.666 Y20.356 E0.00111
G1 X19.863 Y20.314 E0.00156
G1 X20.116 Y20.335 E0.00212
G1 X20.219 Y20.373 E0.00237
G1 X20.308 Y20.425 E0.00259
G1 X20.469 Y20.571 E0.00308
G1 X20.387 Y20.741 E0.00349
G1 X20.020 Y20.679 E0.00432
G1 X19.780 Y20.670 E0.00485
G1 X19.517 Y20.688 E0.00543
G92 E0
G1 X17.088 Y20.486 F3000.000
G1 F60.000
G1 X16.606 Y20.420 E0.00108
G1 X16.249 Y20.436 E0.00187
G1 X15.811 Y20.518 E0.00285
G1 X15.729 Y20.343 E0.00328
G1 X15.827 Y20.259 E0.00357
G1 X15.996 Y20.159 E0.00401
G1 X16.188 Y20.091 E0.00446
G1 X16.428 Y20.053 E0.00499
G1 X16.648 Y20.052 E0.00548
G1 X16.892 Y20.112 E0.00604
G1 X17.064 Y20.222 E0.00649
G1 X17.168 Y20.322 E0.00681
G1 X17.114 Y20.432 E0.00708
G1 X18.022 Y21.349 F3000.000
G1 F60.000
G1 X18.412 Y21.380 E0.00786
G1 X18.588 Y20.953 E0.00877
G1 X18.729 Y20.684 E0.00938
G1 X18.955 Y20.375 E0.01014
G1 X19.214 Y20.146 E0.01082
G1 X19.514 Y19.986 E0.01150
G1 X19.668 Y19.940 E0.01182
G1 X19.836 Y19.916 E0.01215
G1 X20.028 Y19.918 E0.01253
G1 X20.218 Y19.950 E0.01292
G1 X20.390 Y20.013 E0.01328
G1 X20.544 Y20.103 E0.01364
G1 X20.764 Y20.302 E0.01422
G1 X20.887 Y20.466 E0.01463
G1 X20.994 Y20.665 E0.01508
G1 X21.085 Y20.895 E0.01557
G1 X21.158 Y21.157 E0.01611
G1 X21.238 Y21.702 E0.01721
G1 X21.073 Y21.762 E0.01756
G1 X20.858 Y21.445 E0.01832
G1 X20.736 Y21.338 E0.01864
G1 X20.601 Y21.248 E0.01896
G1 X20.313 Y21.131 E0.01958
G1 X19.979 Y21.075 E0.02025
G1 X19.466 Y21.089 E0.02127
G1 X19.057 Y21.196 E0.02211
G1 X18.795 Y21.333 E0.02270
G1 X18.571 Y21.521 E0.02328
G1 X18.443 Y21.679 E0.02368
G1 X18.340 Y21.855 E0.02409
G1 X18.259 Y22.059 E0.02452
G1 X18.215 Y22.324 E0.02505
G1 X18.029 Y22.329 E0.02542
G1 X17.935 Y21.899 E0.02630
G1 X17.806 Y21.583 E0.02698
G1 X17.576 Y21.250 E0.02778
G1 X17.425 Y21.104 E0.02820
G1 X17.255 Y20.989 E0.02860
G1 X16.979 Y20.872 E0.02920
G1 X16.588 Y20.818 E0.02998
G1 X16.295 Y20.832 E0.03057
G1 X15.931 Y20.899 E0.03130
G1 X15.711 Y20.984 E0.03177
G1 X15.451 Y21.147 E0.03238
G1 X15.247 Y21.358 E0.03296
G1 X15.101 Y21.604 E0.03353
G1 X15.014 Y21.869 E0.03408
G1 X14.973 Y22.143 E0.03463
G1 X14.975 Y22.436 E0.03521
G1 X14.753 Y22.441 E0.03565
G1 X14.768 Y21.738 E0.03705
G1 X14.836 Y21.251 E0.03803
G1 X14.964 Y20.803 E0.03895
G1 X15.081 Y20.540 E0.03952
G1 X15.224 Y20.305 E0.04007
G1 X15.395 Y20.104 E0.04059
G1 X15.596 Y19.935 E0.04112
G1 X15.827 Y19.797 E0.04165
G1 X16.090 Y19.704 E0.04220
G1 X16.396 Y19.656 E0.04282
G1 X16.680 Y19.654 E0.04338
G1 X16.889 Y19.689 E0.04380
G1 X17.068 Y19.754 E0.04418
G1 X17.311 Y19.909 E0.04475
G1 X17.517 Y20.106 E0.04532
G1 X17.627 Y20.256 E0.04569
G1 X17.771 Y20.525 E0.04630
G1 X17.885 Y20.825 E0.04693
G1 X18.007 Y21.291 E0.04789
G1 X18.040 Y21.740 F3000.000
G92 E0
G1 X20.975 Y22.019 F3000.000
G1 F900.000
G1 X20.969 Y22.077 E0.00002
G1 F342.455
G1 X20.967 Y22.106 E0.00004
G1 X20.989 Y22.128 E0.00006
G1 F206.308
G1 X21.035 Y22.171 E0.00014
G1 X21.470 Y22.164 E0.00069
G92 E0
G1 X19.649 Y23.263 F3000.000
G1 F60.000
G1 X19.902 Y23.248 E0.00050
G1 X20.358 Y23.159 E0.00143
G1 X20.683 Y23.002 E0.00214
G1 X20.831 Y22.879 E0.00252
G1 X20.948 Y22.737 E0.00289
G1 X21.047 Y22.563 E0.00329
G1 X21.220 Y22.618 E0.00365
G1 X21.192 Y22.923 E0.00426
G1 X21.058 Y23.436 E0.00531
G1 X20.975 Y23.634 E0.00574
G1 X20.777 Y23.940 E0.00646
G1 X20.672 Y24.042 E0.00675
G1 X20.561 Y24.115 E0.00701
G1 X20.453 Y24.160 E0.00725
G1 X20.268 Y24.188 E0.00762
G1 X20.076 Y24.159 E0.00800
G1 X19.932 Y24.082 E0.00833
G1 X19.812 Y23.942 E0.00869
G1 X19.769 Y23.856 E0.00888
G1 X19.689 Y23.590 E0.00944
G1 X19.657 Y23.322 E0.00997
G1 X19.881 Y23.365 F3000.000
G92 E0
G1 X20.763 Y17.129 F3000.000
G1 F60.000
G1 X20.570 Y17.076 E0.00044
G1 X20.314 Y17.060 E0.00101
G1 X15.454 Y17.071 E0.01177
G1 X15.237 Y17.142 E0.01228
G1 X15.237 Y16.646 E0.01338
G1 X20.763 Y16.646 E0.02561
G1 X20.763 Y17.069 E0.02655
G1 X21.160 Y17.732 F3000.000
G1 F60.000
G1 X21.006 Y17.783 E0.02687
G1 X20.904 Y17.647 E0.02721
G1 X20.729 Y17.532 E0.02762
G1 X20.504 Y17.470 E0.02809
G1 X20.302 Y17.457 E0.02849
G1 X15.518 Y17.468 E0.03799
G1 X15.191 Y17.574 E0.03867
G1 X14.840 Y17.893 E0.03961
G1 X14.840 Y16.249 E0.04288
G1 X21.160 Y16.249 E0.05543
G1 X21.160 Y17.672 E0.05826
G1 X20.999 Y17.754 F3000.000
G1 X21.092 Y16.249 F3000.000
G1 F93.028
G1 X21.082 Y15.226 E0.06113
G1 X21.366 Y14.875 E0.06240
G1 X19.965 Y12.772 F3000.000
G1 F60.000
G1 X19.860 Y12.942 E0.06284
G1 X19.467 Y12.809 E0.06376
G1 X19.047 Y12.719 E0.06471
G1 X18.593 Y12.666 E0.06573
G1 X17.874 Y12.654 E0.06732
G1 X17.186 Y12.720 E0.06885
G1 X16.749 Y12.813 E0.06984
G1 X16.338 Y12.940 E0.07079
G1 X16.237 Y12.988 E0.07104
G1 X16.116 Y12.805 E0.07153
G1 X16.292 Y12.651 E0.07204
G1 X16.732 Y12.394 E0.07317
G1 X17.096 Y12.259 E0.07403
G1 X17.480 Y12.170 E0.07490
G1 X17.897 Y12.124 E0.07583
G1 X18.554 Y12.141 E0.07729
G1 X18.955 Y12.214 E0.07819
G1 X19.300 Y12.327 E0.07900
G1 X19.599 Y12.480 E0.07974
G1 X19.922 Y12.729 E0.08064
G1 X21.139 Y14.684 F3000.000
G1 F60.000
G1 X20.940 Y14.727 E0.08105
G1 X20.838 Y14.412 E0.08170
G1 X20.694 Y14.126 E0.08234
G1 X20.507 Y13.870 E0.08297
G1 X20.279 Y13.647 E0.08360
G1 X20.010 Y13.459 E0.08425
G1 X19.704 Y13.308 E0.08493
G1 X19.361 Y13.192 E0.08565
G1 X18.983 Y13.112 E0.08642
G1 X18.567 Y13.063 E0.08725
G1 X17.889 Y13.052 E0.08860
G1 X17.246 Y13.113 E0.08988
G1 X16.850 Y13.198 E0.09069
G1 X16.484 Y13.311 E0.09145
G1 X16.003 Y13.541 E0.09250
G1 X15.723 Y13.742 E0.09319
G1 X15.591 Y13.865 E0.09355
G1 X15.380 Y14.114 E0.09419
G1 X15.284 Y14.262 E0.09454
G1 X15.140 Y14.557 E0.09520
G1 X15.054 Y14.812 E0.09573
G1 X14.861 Y14.776 E0.09612
G1 X14.949 Y14.129 E0.09742
G1 X15.079 Y13.678 E0.09835
G1 X15.263 Y13.267 E0.09925
G1 X15.487 Y12.906 E0.10009
G1 X15.753 Y12.595 E0.10090
G1 X16.054 Y12.332 E0.10170
G1 X16.397 Y12.115 E0.10250
G1 X16.576 Y12.028 E0.10290
G1 X16.981 Y11.878 E0.10375
G1 X17.413 Y11.777 E0.10463
G1 X17.876 Y11.727 E0.10556
G1 X18.373 Y11.727 E0.10655
G1 X18.606 Y11.746 E0.10701
G1 X19.054 Y11.828 E0.10791
G1 X19.453 Y11.960 E0.10875
G1 X19.806 Y12.139 E0.10954
G1 X20.117 Y12.363 E0.11030
G1 X20.387 Y12.630 E0.11105
G1 X20.617 Y12.946 E0.11183
G1 X20.809 Y13.311 E0.11265
G1 X21.019 Y13.938 E0.11396
G1 X21.132 Y14.624 E0.11534
G1 X20.946 Y14.618 F3000.000
G92 E0
G1 X15.227 Y15.069 F3000.000
