; generated by Slic3r 1.3.1-dev (Build 18ddd3a36dc69d81fb9b7440498bff9e1dde8b7e) on 2023-01-23 at 15:01:21

; external perimeters extrusion width = 0.44mm (0.00mm^3/s)
; perimeters extrusion width = 0.48mm (0.00mm^3/s)
; infill extrusion width = 0.48mm (0.63mm^3/s)
; solid infill extrusion width = 0.48mm (0.25mm^3/s)
; top infill extrusion width = 0.48mm (0.25mm^3/s)

G92 E0
M104 S20 ; set temperature
;G28 ; home all axes
g1 z25 f5000
g28 x0
g28 y0
;G1 Z5 F5000 ; lift nozzle
G1 X13 Y5 F4000
G28 Z0

; Filament gcode

M109 S20 ; set temperature and wait for it to be reached
G21 ; set units to millimeters
G90 ; use absolute coordinates
M82 ; use absolute distances for extrusion
G92 E0
G1 Z0.300 F3000.000
G1 X10.504 Y11.287 F3000.000
G1 F120.000
G1 X12.253 Y9.828 E0.00645
G1 X15.500 Y8.964 E0.01596
G1 X20.500 Y8.964 E0.03012
G1 X22.743 Y9.361 E0.03657
G1 X24.713 Y10.504 E0.04302
G1 X26.172 Y12.253 E0.04947
G1 X27.036 Y15.500 E0.05899
G1 X27.036 Y20.500 E0.07314
G1 X26.639 Y22.743 E0.07959
G1 X25.496 Y24.713 E0.08604
G1 X23.747 Y26.172 E0.09249
G1 X20.500 Y27.036 E0.10201
G1 X15.500 Y27.036 E0.11617
G1 X13.257 Y26.639 E0.12262
G1 X11.287 Y25.496 E0.12907
G1 X9.828 Y23.747 E0.13552
G1 X8.964 Y20.500 E0.14503
G1 X8.964 Y15.500 E0.15919
G1 X9.361 Y13.257 E0.16564
G1 X10.474 Y11.338 E0.17192
G92 E0
G1 X19.664 Y19.664 F3000.000
G1 F120.000
G1 X16.336 Y19.664 E0.00943
G1 X16.336 Y16.336 E0.01885
G1 X19.664 Y16.336 E0.02828
G1 X19.664 Y19.604 E0.03753
G1 X20.200 Y20.200 F3000.000
G1 F120.000
G1 X15.800 Y20.200 E0.04999
G1 X15.800 Y15.800 E0.06245
G1 X20.200 Y15.800 E0.07491
G1 X20.200 Y20.140 E0.08720
G1 X19.814 Y20.096 F3000.000
G1 X18.920 Y19.337 F3000.000
G1 F120.000
G1 X19.337 Y18.920 E0.08919
G1 X19.337 Y18.017 E0.09224
G1 X18.017 Y19.337 E0.09854
G1 X17.114 Y19.337 E0.10159
G1 X19.337 Y17.114 E0.11220
G1 X19.337 Y16.663 E0.11372
G1 X18.886 Y16.663 E0.11525
G1 X16.663 Y18.886 E0.12586
G1 X16.663 Y17.983 E0.12891
G1 X17.983 Y16.663 E0.13521
G1 X17.080 Y16.663 E0.13825
G1 X16.663 Y17.080 E0.14024
G1 Z0.600 F3000.000
G1 X19.883 Y19.883 F3000.000
G1 F60.000
G1 X16.117 Y19.883 E0.14858
G1 X16.117 Y16.117 E0.15692
G1 X19.883 Y16.117 E0.16526
G1 X19.883 Y19.823 E0.17347
G1 X20.280 Y20.280 F3000.000
G1 F60.000
G1 X15.720 Y20.280 E0.18252
G1 X15.720 Y15.720 E0.19158
G1 X20.280 Y15.720 E0.20063
G1 X20.280 Y20.220 E0.20957
G1 X19.894 Y20.176 F3000.000
G1 X19.627 Y16.699 F3000.000
G1 F120.000
G1 X19.301 Y16.373 E0.21069
G1 X18.650 Y16.373 E0.21227
G1 X19.627 Y17.350 E0.21563
G1 X19.627 Y18.000 E0.21721
G1 X18.000 Y16.373 E0.22281
G1 X17.349 Y16.373 E0.22439
G1 X19.627 Y18.651 E0.23223
G1 X19.627 Y19.302 E0.23381
G1 X16.698 Y16.373 E0.24388
G1 X16.373 Y16.373 E0.24467
G1 X16.373 Y16.698 E0.24546
G1 X19.302 Y19.627 E0.25553
G1 X18.651 Y19.627 E0.25712
G1 X16.373 Y17.349 E0.26495
G1 X16.373 Y18.000 E0.26653
G1 X18.000 Y19.627 E0.27213
G1 X17.350 Y19.627 E0.27371
G1 X16.373 Y18.650 E0.27707
G1 X16.373 Y19.301 E0.27865
G1 X16.699 Y19.627 E0.27977
G1 Z0.900 F3000.000
G1 X19.883 Y19.883 F3000.000
G1 F60.000
G1 X16.117 Y19.883 E0.28811
G1 X16.117 Y16.117 E0.29645
G1 X19.883 Y16.117 E0.30479
G1 X19.883 Y19.823 E0.31300
G1 X20.280 Y20.280 F3000.000
G1 F60.000
G1 X15.720 Y20.280 E0.32205
G1 X15.720 Y15.720 E0.33111
G1 X20.280 Y15.720 E0.34016
G1 X20.280 Y20.220 E0.34910
G1 X19.894 Y20.176 F3000.000
G1 X19.301 Y19.627 F3000.000
G1 F120.000
G1 X19.627 Y19.301 E0.35022
G1 X19.627 Y18.650 E0.35180
G1 X18.650 Y19.627 E0.35516
G1 X18.000 Y19.627 E0.35674
G1 X19.627 Y18.000 E0.36234
G1 X19.627 Y17.349 E0.36392
G1 X17.349 Y19.627 E0.37176
G1 X16.699 Y19.627 E0.37334
G1 X19.627 Y16.699 E0.38341
G1 X19.627 Y16.373 E0.38420
G1 X19.301 Y16.373 E0.38499
G1 X16.373 Y19.301 E0.39506
G1 X16.373 Y18.651 E0.39665
G1 X18.651 Y16.373 E0.40448
G1 X18.000 Y16.373 E0.40606
G1 X16.373 Y18.000 E0.41166
G1 X16.373 Y17.350 E0.41324
G1 X17.350 Y16.373 E0.41660
G1 X16.699 Y16.373 E0.41818
G1 X16.373 Y16.699 E0.41930
G1 Z1.200 F3000.000
G1 X19.883 Y19.883 F3000.000
G1 F60.000
G1 X16.117 Y19.883 E0.42764
G1 X16.117 Y16.117 E0.43598
G1 X19.883 Y16.117 E0.44432
G1 X19.883 Y19.823 E0.45253
G1 X20.280 Y20.280 F3000.000
G1 F60.000
G1 X15.720 Y20.280 E0.46158
G1 X15.720 Y15.720 E0.47064
G1 X20.280 Y15.720 E0.47969
G1 X20.280 Y20.220 E0.48863
G1 X19.894 Y20.176 F3000.000
G1 X19.627 Y16.699 F3000.000
G1 F120.000
G1 X19.301 Y16.373 E0.48975
G1 X18.650 Y16.373 E0.49133
G1 X19.627 Y17.350 E0.49469
G1 X19.627 Y18.000 E0.49627
G1 X18.000 Y16.373 E0.50187
G1 X17.349 Y16.373 E0.50345
G1 X19.627 Y18.651 E0.51129
G1 X19.627 Y19.301 E0.51287
G1 X16.699 Y16.373 E0.52294
G1 X16.373 Y16.373 E0.52373
G1 X16.373 Y16.699 E0.52452
G1 X19.301 Y19.627 E0.53459
G1 X18.651 Y19.627 E0.53618
G1 X16.373 Y17.349 E0.54401
G1 X16.373 Y18.000 E0.54559
G1 X18.000 Y19.627 E0.55119
G1 X17.350 Y19.627 E0.55277
G1 X16.373 Y18.650 E0.55613
G1 X16.373 Y19.301 E0.55771
G1 X16.699 Y19.627 E0.55883
G1 Z1.500 F3000.000
G1 X19.883 Y19.883 F3000.000
G1 F60.000
G1 X16.117 Y19.883 E0.56717
G1 X16.117 Y16.117 E0.57551
G1 X19.883 Y16.117 E0.58385
G1 X19.883 Y19.823 E0.59206
G1 X20.280 Y20.280 F3000.000
G1 F60.000
G1 X15.720 Y20.280 E0.60111
G1 X15.720 Y15.720 E0.61017
G1 X20.280 Y15.720 E0.61922
G1 X20.280 Y20.220 E0.62816
G1 X19.894 Y20.176 F3000.000
G1 X19.301 Y19.627 F3000.000
G1 F120.000
G1 X19.627 Y19.301 E0.62928
G1 X19.627 Y18.650 E0.63086
G1 X18.650 Y19.627 E0.63422
G1 X18.000 Y19.627 E0.63580
G1 X19.627 Y18.000 E0.64140
G1 X19.627 Y17.349 E0.64298
G1 X17.349 Y19.627 E0.65082
G1 X16.699 Y19.627 E0.65240
G1 X19.627 Y16.699 E0.66247
G1 X19.627 Y16.373 E0.66326
G1 X19.301 Y16.373 E0.66405
G1 X16.373 Y19.301 E0.67412
G1 X16.373 Y18.651 E0.67571
G1 X18.651 Y16.373 E0.68354
G1 X18.000 Y16.373 E0.68512
G1 X16.373 Y18.000 E0.69072
G1 X16.373 Y17.350 E0.69230
G1 X17.350 Y16.373 E0.69566
G1 X16.699 Y16.373 E0.69724
G1 X16.373 Y16.699 E0.69836
G1 Z1.800 F3000.000
G1 X19.883 Y19.883 F3000.000
G1 F60.000
G1 X16.117 Y19.883 E0.70670
G1 X16.117 Y16.117 E0.71504
G1 X19.883 Y16.117 E0.72338
G1 X19.883 Y19.823 E0.73159
G1 X20.280 Y20.280 F3000.000
G1 F60.000
G1 X15.720 Y20.280 E0.74064
G1 X15.720 Y15.720 E0.74970
G1 X20.280 Y15.720 E0.75875
G1 X20.280 Y20.220 E0.76769
G1 X19.894 Y20.176 F3000.000
G1 X19.627 Y16.699 F3000.000
G1 F120.000
G1 X19.301 Y16.373 E0.76881
G1 X18.650 Y16.373 E0.77039
G1 X19.627 Y17.350 E0.77375
G1 X19.627 Y18.000 E0.77533
G1 X18.000 Y16.373 E0.78093
G1 X17.349 Y16.373 E0.78251
G1 X19.627 Y18.651 E0.79035
G1 X19.627 Y19.301 E0.79193
G1 X16.699 Y16.373 E0.80200
G1 X16.373 Y16.373 E0.80279
G1 X16.373 Y16.699 E0.80358
G1 X19.301 Y19.627 E0.81365
G1 X18.651 Y19.627 E0.81524
G1 X16.373 Y17.349 E0.82307
G1 X16.373 Y18.000 E0.82465
G1 X18.000 Y19.627 E0.83025
G1 X17.350 Y19.627 E0.83183
G1 X16.373 Y18.650 E0.83519
G1 X16.373 Y19.301 E0.83677
G1 X16.699 Y19.627 E0.83789
G1 Z2.100 F3000.000
G1 X19.883 Y19.883 F3000.000
G1 F60.000
G1 X16.117 Y19.883 E0.84623
G1 X16.117 Y16.117 E0.85457
G1 X19.883 Y16.117 E0.86291
G1 X19.883 Y19.823 E0.87112
G1 X20.280 Y20.280 F3000.000
G1 F60.000
G1 X15.720 Y20.280 E0.88017
G1 X15.720 Y15.720 E0.88923
G1 X20.280 Y15.720 E0.89828
G1 X20.280 Y20.220 E0.90722
G1 X19.894 Y20.176 F3000.000
G1 X19.301 Y19.627 F3000.000
G1 F120.000
G1 X19.627 Y19.301 E0.90834
G1 X19.627 Y18.650 E0.90992
G1 X18.650 Y19.627 E0.91328
G1 X18.000 Y19.627 E0.91486
G1 X19.627 Y18.000 E0.92046
G1 X19.627 Y17.349 E0.92204
G1 X17.349 Y19.627 E0.92988
G1 X16.698 Y19.627 E0.93146
G1 X19.627 Y16.698 E0.94153
G1 X19.627 Y16.373 E0.94232
G1 X19.302 Y16.373 E0.94311
G1 X16.373 Y19.302 E0.95318
G1 X16.373 Y18.651 E0.95477
G1 X18.651 Y16.373 E0.96260
G1 X18.000 Y16.373 E0.96418
G1 X16.373 Y18.000 E0.96978
G1 X16.373 Y17.350 E0.97136
G1 X17.350 Y16.373 E0.97472
G1 X16.699 Y16.373 E0.97630
G1 X16.373 Y16.699 E0.97742
G1 Z2.400 F3000.000
G92 E0
G1 X19.883 Y19.883 F3000.000
G1 F60.000
G1 X16.117 Y19.883 E0.00834
G1 X16.117 Y16.117 E0.01668
G1 X19.883 Y16.117 E0.02502
G1 X19.883 Y19.823 E0.03322
G1 X20.280 Y20.280 F3000.000
G1 F60.000
G1 X15.720 Y20.280 E0.04228
G1 X15.720 Y15.720 E0.05133
G1 X20.280 Y15.720 E0.06039
G1 X20.280 Y20.220 E0.06932
G1 X19.894 Y20.176 F3000.000
G92 E0
G1 X19.627 Y16.699 F3000.000
G1 F120.000
G1 X19.301 Y16.373 E0.00112
G1 X18.650 Y16.373 E0.00270
G1 X19.627 Y17.350 E0.00606
G1 X19.627 Y18.000 E0.00764
G1 X18.000 Y16.373 E0.01324
G1 X17.349 Y16.373 E0.01482
G1 X19.627 Y18.651 E0.02266
G1 X19.627 Y19.302 E0.02424
G1 X16.698 Y16.373 E0.03431
G1 X16.373 Y16.373 E0.03510
G1 X16.373 Y16.698 E0.03589
G1 X19.302 Y19.627 E0.04597
G1 X18.651 Y19.627 E0.04755
G1 X16.373 Y17.349 E0.05538
G1 X16.373 Y18.000 E0.05697
G1 X18.000 Y19.627 E0.06256
G1 X17.350 Y19.627 E0.06414
G1 X16.373 Y18.650 E0.06750
G1 X16.373 Y19.301 E0.06909
G1 X16.699 Y19.627 E0.07021
G92 E0
; Filament-specific end gcode 
;END gcode for filament

M104 S0 ; turn off temperature
;G28 X0  ; home X axis
M84     ; disable motors
G1 Z25 F5000
M140 S0 ; set bed temperature
; cog_x = 17.997439
; cog_y = 17.994564
; cog_z = 1.262420
; filament_length_m = 0.0013 
; filament_volume_cm3 = 0.0731
; total_filament_cost = 0.0

; avoid_crossing_perimeters = 0
; bed_shape = 0x0,36x0,36x36,0x36
; bed_temperature = 0
; before_layer_gcode = 
; between_objects_gcode = 
; bridge_acceleration = 0
; bridge_fan_speed = 100
; brim_connections_width = 0
; brim_ears = 0
; brim_ears_max_angle = 125
; brim_width = 0
; complete_objects = 0
; cooling = 0
; default_acceleration = 0
; disable_fan_first_layers = 3
; duplicate_distance = 6
; end_filament_gcode = "; Filament-specific end gcode \n;END gcode for filament\n"
; end_gcode = M104 S0 ; turn off temperature\n;G28 X0  ; home X axis\nM84     ; disable motors\nG1 Z25 F5000
; extruder_clearance_height = 20
; extruder_clearance_radius = 20
; extruder_offset = 0x0
; extrusion_axis = E
; extrusion_multiplier = 1
; fan_always_on = 0
; fan_below_layer_time = 60
; fan_percentage = 0
; filament_colour = #FFFFFF
; filament_cost = 0
; filament_density = 0
; filament_diameter = 8.5
; filament_max_volumetric_speed = 0
; filament_notes = ""
; first_layer_acceleration = 0
; first_layer_bed_temperature = 0
; first_layer_extrusion_width = 200%
; first_layer_speed = 2
; first_layer_temperature = 20
; gcode_arcs = 0
; gcode_comments = 0
; gcode_flavor = repetier
; has_heatbed = 1
; infill_acceleration = 0
; infill_first = 0
; interior_brim_width = 0
; label_printed_objects = 0
; layer_gcode = 
; max_fan_speed = 100
; max_layer_height = 0.4
; max_print_speed = 15
; max_volumetric_speed = 0
; min_fan_speed = 35
; min_layer_height = 0.05
; min_print_speed = 10
; min_skirt_length = 0
; notes = 
; nozzle_diameter = 0.4
; only_retract_when_crossing_perimeters = 1
; ooze_prevention = 0
; output_filename_format = [input_filename_base].gcode
; perimeter_acceleration = 0
; post_process = 
; pressure_advance = 0
; printer_notes = 
; resolution = 0
; retract_before_travel = 2
; retract_layer_change = 0
; retract_length = 0
; retract_length_toolchange = 10
; retract_lift = 0
; retract_lift_above = 0
; retract_lift_below = 0
; retract_restart_extra = 0
; retract_restart_extra_toolchange = 0
; retract_speed = 40
; skirt_distance = 6
; skirt_height = 1
; skirts = 1
; slowdown_below_layer_time = 5
; spiral_vase = 0
; standby_temperature_delta = -5
; start_filament_gcode = "; Filament gcode\n"
; start_gcode = ;G28 ; home all axes\ng1 z25 f5000\ng28 x0\ng28 y0\n;G1 Z5 F5000 ; lift nozzle\nG1 X13 Y5 F4000\nG28 Z0\n
; temperature = 20
; threads = 4
; toolchange_gcode = 
; travel_speed = 50
; use_firmware_retraction = 0
; use_relative_e_distances = 0
; use_set_and_wait_bed = 0
; use_set_and_wait_extruder = 0
; use_volumetric_e = 0
; vibration_limit = 0
; wipe = 0
; z_offset = 0
; z_steps_per_mm = 0
; adaptive_slicing = 0
; adaptive_slicing_quality = 75%
; dont_support_bridges = 1
; extrusion_width = 0
; first_layer_height = 0.3
; infill_only_where_needed = 0
; interface_shells = 0
; layer_height = 0.3
; match_horizontal_surfaces = 0
; raft_layers = 0
; regions_overlap = 0
; seam_position = aligned
; sequential_print_priority = 0
; support_material = 0
; support_material_angle = 0
; support_material_buildplate_only = 0
; support_material_contact_distance = 0.2
; support_material_enforce_layers = 0
; support_material_extruder = 1
; support_material_extrusion_width = 0
; support_material_interface_extruder = 1
; support_material_interface_extrusion_width = 0
; support_material_interface_layers = 3
; support_material_interface_spacing = 0
; support_material_interface_speed = 100%
; support_material_max_layers = 0
; support_material_pattern = pillars
; support_material_pillar_size = 2.5
; support_material_pillar_spacing = 10
; support_material_spacing = 2.5
; support_material_speed = 0
; support_material_threshold = 60%
; xy_size_compensation = 0
; bottom_infill_pattern = rectilinear
; bottom_solid_layers = 2
; bridge_flow_ratio = 1
; bridge_speed = 5
; external_perimeter_extrusion_width = 0
; external_perimeter_speed = 0
; external_perimeters_first = 0
; extra_perimeters = 1
; fill_angle = 45
; fill_density = 100%
; fill_gaps = 0
; fill_pattern = rectilinear
; gap_fill_speed = 2
; infill_every_layers = 1
; infill_extruder = 1
; infill_extrusion_width = 0
; infill_overlap = 55%
; infill_speed = 5
; min_shell_thickness = 0
; min_top_bottom_shell_thickness = 0
; overhangs = 1
; perimeter_extruder = 1
; perimeter_extrusion_width = 0
; perimeter_speed = 0
; perimeters = 2
; small_perimeter_speed = 1
; solid_infill_below_area = 10
; solid_infill_every_layers = 1
; solid_infill_extruder = 1
; solid_infill_extrusion_width = 0
; solid_infill_speed = 2
; thin_walls = 1
; top_infill_extrusion_width = 0
; top_infill_pattern = rectilinear
; top_solid_infill_speed = 2
; top_solid_layers = 2

