; generated by Slic3r 1.3.1-dev (Build 18ddd3a36dc69d81fb9b7440498bff9e1dde8b7e) on 2023-01-23 at 15:00:02

; external perimeters extrusion width = 0.44mm (0.00mm^3/s)
; perimeters extrusion width = 0.48mm (0.00mm^3/s)
; infill extrusion width = 0.48mm (0.63mm^3/s)
; solid infill extrusion width = 0.48mm (0.25mm^3/s)
; top infill extrusion width = 0.48mm (0.25mm^3/s)

G92 E0
M104 S20 ; set temperature
;G28 ; home all axes
g1 z25 f5000
g28 x0
g28 y0
;G1 Z5 F5000 ; lift nozzle
G1 X13 Y5 F4000
G28 Z0

; Filament gcode

M109 S20 ; set temperature and wait for it to be reached
G21 ; set units to millimeters
G90 ; use absolute coordinates
M82 ; use absolute distances for extrusion
G92 E0
G1 Z0.300 F3000.000
G1 X12.273 Y10.608 F3000.000
G1 F120.000
G1 X12.844 Y10.027 E0.00231
G1 X13.352 Y9.571 E0.00424
G1 X14.426 Y8.789 E0.00800
G1 X14.920 Y8.501 E0.00962
G1 X16.866 Y7.751 E0.01553
G1 X17.346 Y7.650 E0.01692
G1 X17.664 Y7.590 E0.01783
G1 X18.696 Y7.480 E0.02077
G1 X19.813 Y7.498 E0.02393
G1 X20.264 Y7.544 E0.02522
G1 X21.905 Y7.930 E0.02999
G1 X22.396 Y8.115 E0.03148
G1 X24.379 Y9.298 E0.03801
G1 X24.829 Y9.689 E0.03970
G1 X26.403 Y11.731 E0.04700
G1 X26.733 Y12.400 E0.04912
G1 X27.356 Y14.472 E0.05525
G1 X27.484 Y15.486 E0.05814
G1 X27.536 Y16.305 E0.06046
G1 X27.536 Y19.695 E0.07006
G1 X27.484 Y20.514 E0.07238
G1 X27.356 Y21.528 E0.07528
G1 X26.733 Y23.600 E0.08141
G1 X26.403 Y24.269 E0.08352
G1 X24.829 Y26.311 E0.09082
G1 X24.379 Y26.702 E0.09251
G1 X22.396 Y27.885 E0.09905
G1 X21.905 Y28.070 E0.10053
G1 X20.264 Y28.456 E0.10531
G1 X19.813 Y28.502 E0.10659
G1 X18.696 Y28.520 E0.10975
G1 X17.664 Y28.410 E0.11269
G1 X16.866 Y28.249 E0.11500
G1 X14.920 Y27.499 E0.12090
G1 X14.426 Y27.211 E0.12252
G1 X13.352 Y26.429 E0.12628
G1 X12.844 Y25.973 E0.12822
G1 X12.273 Y25.392 E0.13052
G1 X11.431 Y24.391 E0.13423
G1 X10.708 Y23.400 E0.13770
G1 X10.042 Y22.397 E0.14111
G1 X9.460 Y21.467 E0.14422
G1 X8.606 Y19.355 E0.15067
G1 X8.530 Y17.079 E0.15712
G1 X9.460 Y14.533 E0.16479
G1 X10.146 Y13.442 E0.16844
G1 X10.889 Y12.342 E0.17220
G1 X11.431 Y11.609 E0.17478
G1 X12.234 Y10.653 E0.17832
G92 E0
G1 X18.802 Y18.000 F3000.000
G1 F120.000
G1 X19.764 Y18.776 E0.00350
G1 X19.971 Y19.045 E0.00446
G1 X20.069 Y19.247 E0.00510
G1 X20.136 Y19.465 E0.00574
G1 X20.159 Y19.685 E0.00637
G1 X20.061 Y20.465 E0.00860
G1 X19.867 Y20.858 E0.00984
G1 X19.657 Y21.040 E0.01062
G1 X19.408 Y21.134 E0.01138
G1 X19.137 Y21.161 E0.01215
G1 X18.933 Y21.147 E0.01273
G1 X18.514 Y21.062 E0.01394
G1 X18.213 Y20.886 E0.01493
G1 X17.807 Y20.522 E0.01647
G1 X17.339 Y19.982 E0.01849
G1 X16.828 Y19.291 E0.02093
G1 X15.986 Y18.000 E0.02529
G1 X16.828 Y16.709 E0.02966
G1 X17.339 Y16.018 E0.03209
G1 X17.807 Y15.478 E0.03411
G1 X18.213 Y15.114 E0.03566
G1 X18.516 Y14.937 E0.03665
G1 X18.820 Y14.873 E0.03753
G1 X19.149 Y14.840 E0.03847
G1 X19.408 Y14.866 E0.03921
G1 X19.657 Y14.960 E0.03996
G1 X19.867 Y15.142 E0.04075
G1 X20.061 Y15.535 E0.04199
G1 X20.159 Y16.315 E0.04421
G1 X20.136 Y16.535 E0.04484
G1 X20.069 Y16.753 E0.04548
G1 X19.971 Y16.955 E0.04612
G1 X19.764 Y17.224 E0.04708
G1 X18.848 Y17.962 E0.05041
G1 X19.655 Y18.000 F3000.000
G1 F120.000
G1 X20.134 Y18.386 E0.05215
G1 X20.282 Y18.551 E0.05278
G1 X20.435 Y18.775 E0.05355
G1 X20.569 Y19.050 E0.05442
G1 X20.664 Y19.358 E0.05533
G1 X20.698 Y19.692 E0.05628
G1 X20.581 Y20.621 E0.05893
G1 X20.300 Y21.191 E0.06073
G1 X19.936 Y21.507 E0.06210
G1 X19.532 Y21.660 E0.06332
G1 X19.145 Y21.699 E0.06442
G1 X18.861 Y21.679 E0.06523
G1 X18.320 Y21.569 E0.06679
G1 X17.896 Y21.321 E0.06818
G1 X17.424 Y20.898 E0.06997
G1 X16.920 Y20.317 E0.07215
G1 X16.390 Y19.599 E0.07468
G1 X15.834 Y18.767 E0.07751
G1 X15.354 Y18.000 E0.08008
G1 X15.834 Y17.233 E0.08264
G1 X16.390 Y16.401 E0.08547
G1 X16.920 Y15.683 E0.08800
G1 X17.424 Y15.102 E0.09018
G1 X17.896 Y14.679 E0.09197
G1 X18.321 Y14.431 E0.09337
G1 X18.738 Y14.343 E0.09457
G1 X19.150 Y14.302 E0.09574
G1 X19.532 Y14.340 E0.09683
G1 X19.936 Y14.493 E0.09805
G1 X20.300 Y14.809 E0.09942
G1 X20.581 Y15.379 E0.10122
G1 X20.698 Y16.308 E0.10387
G1 X20.664 Y16.642 E0.10482
G1 X20.569 Y16.950 E0.10574
G1 X20.435 Y17.225 E0.10660
G1 X20.282 Y17.449 E0.10737
G1 X20.134 Y17.614 E0.10800
G1 X19.701 Y17.962 E0.10957
G1 X19.386 Y18.297 F3000.000
G92 E0
G1 X17.983 Y16.061 F3000.000
G1 F120.000
G1 X18.399 Y15.645 E0.00186
G1 X18.738 Y15.341 E0.00330
G1 X18.919 Y15.235 E0.00396
G1 X19.357 Y15.170 E0.00536
G1 X19.493 Y15.184 E0.00579
G1 X19.587 Y15.219 E0.00611
G1 X19.631 Y15.258 E0.00629
G1 X16.521 Y18.368 E0.02018
G1 X16.854 Y18.879 E0.02211
G1 X19.805 Y15.929 E0.03529
G1 X19.828 Y16.112 E0.03588
G1 X19.778 Y16.348 E0.03664
G1 X19.722 Y16.463 E0.03704
G1 X19.587 Y16.638 E0.03774
G1 X18.157 Y17.792 E0.04354
G1 X18.506 Y18.073 E0.04496
G1 X17.198 Y19.381 E0.05080
G1 X17.558 Y19.866 E0.05271
G1 X18.973 Y18.450 E0.05903
G1 X19.441 Y18.827 E0.06093
G1 X17.950 Y20.318 E0.06759
G1 X18.321 Y20.659 E0.06918
G1 X18.405 Y20.708 E0.06948
G1 X19.801 Y19.312 E0.07572
G1 X19.828 Y19.471 E0.07623
G1 X19.749 Y20.101 E0.07823
G1 X19.643 Y20.315 E0.07899
G1 X19.225 Y20.733 E0.08086
G1 Z0.600 F3000.000
G1 X19.149 Y18.000 F3000.000
G1 F60.000
G1 X19.915 Y18.617 E0.08304
G1 X20.031 Y18.747 E0.08342
G1 X20.160 Y18.935 E0.08393
G1 X20.273 Y19.166 E0.08450
G1 X20.351 Y19.421 E0.08509
G1 X20.379 Y19.688 E0.08568
G1 X20.273 Y20.529 E0.08756
G1 X20.043 Y20.994 E0.08870
G1 X19.771 Y21.230 E0.08950
G1 X19.458 Y21.348 E0.09024
G1 X19.140 Y21.381 E0.09095
G1 X18.903 Y21.364 E0.09148
G1 X18.435 Y21.269 E0.09254
G1 X18.083 Y21.064 E0.09344
G1 X17.651 Y20.675 E0.09472
G1 X17.168 Y20.119 E0.09636
G1 X16.649 Y19.417 E0.09829
G1 X15.728 Y18.000 E0.10203
G1 X16.649 Y16.583 E0.10577
G1 X17.168 Y15.881 E0.10771
G1 X17.651 Y15.325 E0.10934
G1 X18.083 Y14.936 E0.11063
G1 X18.437 Y14.730 E0.11153
G1 X18.787 Y14.657 E0.11232
G1 X19.150 Y14.620 E0.11313
G1 X19.458 Y14.652 E0.11382
G1 X19.771 Y14.770 E0.11456
G1 X20.043 Y15.006 E0.11536
G1 X20.273 Y15.471 E0.11650
G1 X20.379 Y16.312 E0.11838
G1 X20.351 Y16.579 E0.11898
G1 X20.273 Y16.834 E0.11957
G1 X20.160 Y17.065 E0.12014
G1 X20.031 Y17.253 E0.12064
G1 X19.915 Y17.383 E0.12103
G1 X19.196 Y17.962 E0.12307
G1 X19.782 Y18.000 F3000.000
G1 F60.000
G1 X20.189 Y18.328 E0.12411
G1 X20.345 Y18.501 E0.12457
G1 X20.504 Y18.735 E0.12513
G1 X20.644 Y19.020 E0.12576
G1 X20.742 Y19.342 E0.12643
G1 X20.779 Y19.692 E0.12713
G1 X20.658 Y20.645 E0.12904
G1 X20.364 Y21.241 E0.13036
G1 X19.977 Y21.577 E0.13138
G1 X19.550 Y21.738 E0.13228
G1 X19.146 Y21.779 E0.13309
G1 X18.850 Y21.759 E0.13368
G1 X18.291 Y21.645 E0.13481
G1 X17.848 Y21.386 E0.13583
G1 X17.367 Y20.954 E0.13711
G1 X16.858 Y20.367 E0.13866
G1 X16.324 Y19.645 E0.14044
G1 X15.767 Y18.811 E0.14243
G1 X15.260 Y18.000 E0.14433
G1 X15.767 Y17.189 E0.14623
G1 X16.324 Y16.355 E0.14822
G1 X16.858 Y15.633 E0.15001
G1 X17.367 Y15.046 E0.15155
G1 X17.848 Y14.614 E0.15283
G1 X18.292 Y14.355 E0.15385
G1 X18.726 Y14.264 E0.15473
G1 X19.150 Y14.221 E0.15558
G1 X19.550 Y14.262 E0.15638
G1 X19.977 Y14.423 E0.15729
G1 X20.364 Y14.759 E0.15830
G1 X20.658 Y15.355 E0.15962
G1 X20.779 Y16.308 E0.16153
G1 X20.742 Y16.658 E0.16223
G1 X20.644 Y16.980 E0.16290
G1 X20.504 Y17.265 E0.16353
G1 X20.345 Y17.499 E0.16409
G1 X20.189 Y17.672 E0.16455
G1 X19.829 Y17.962 E0.16547
G1 X19.514 Y18.297 F3000.000
G1 X20.095 Y16.282 F3000.000
G1 F120.000
G1 X18.719 Y14.905 E0.17002
G1 X18.426 Y14.964 E0.17071
G1 X18.253 Y15.064 E0.17118
G1 X20.041 Y16.852 E0.17708
G1 X19.960 Y17.016 E0.17751
G1 X19.796 Y17.232 E0.17814
G1 X17.910 Y15.346 E0.18437
G1 X17.787 Y15.456 E0.18475
G1 X17.605 Y15.666 E0.18540
G1 X19.452 Y17.512 E0.19149
G1 X19.106 Y17.791 E0.19253
G1 X17.317 Y16.001 E0.19844
G1 X17.051 Y16.360 E0.19948
G1 X18.761 Y18.070 E0.20512
G1 X18.645 Y18.163 E0.20547
G1 X19.725 Y19.034 E0.20871
G1 X19.872 Y19.181 E0.20920
G1 X20.045 Y19.484 E0.21001
G1 X20.102 Y19.668 E0.21046
G1 X20.120 Y19.846 E0.21088
G1 X20.097 Y20.030 E0.21131
G1 X16.789 Y16.722 E0.22223
G1 X16.543 Y17.101 E0.22328
G1 X20.023 Y20.581 E0.23477
G1 X19.868 Y20.896 E0.23559
G1 X19.785 Y20.967 E0.23584
G1 X16.297 Y17.479 E0.24736
G1 X16.065 Y17.837 E0.24835
G1 X16.128 Y17.934 E0.24862
G1 X19.315 Y21.121 E0.25914
G1 X19.123 Y21.111 E0.25959
G1 X18.749 Y21.035 E0.26048
G1 X18.494 Y20.886 E0.26117
G1 X18.115 Y20.545 E0.26236
G1 X17.786 Y20.217 E0.26345
G1 X19.868 Y15.431 F3000.000
G1 F120.000
G1 X19.542 Y15.105 E0.26452
G1 Z0.900 F3000.000
G1 X19.149 Y18.000 F3000.000
G1 F60.000
G1 X19.915 Y18.617 E0.26670
G1 X20.031 Y18.747 E0.26709
G1 X20.160 Y18.935 E0.26759
G1 X20.273 Y19.166 E0.26816
G1 X20.351 Y19.421 E0.26875
G1 X20.379 Y19.688 E0.26934
G1 X20.273 Y20.529 E0.27122
G1 X20.043 Y20.994 E0.27237
G1 X19.771 Y21.230 E0.27317
G1 X19.458 Y21.348 E0.27391
G1 X19.140 Y21.381 E0.27462
G1 X18.903 Y21.364 E0.27514
G1 X18.435 Y21.269 E0.27620
G1 X18.083 Y21.064 E0.27710
G1 X17.651 Y20.675 E0.27839
G1 X17.168 Y20.119 E0.28002
G1 X16.649 Y19.417 E0.28195
G1 X15.728 Y18.000 E0.28570
G1 X16.649 Y16.583 E0.28944
G1 X17.168 Y15.881 E0.29137
G1 X17.651 Y15.325 E0.29300
G1 X18.083 Y14.936 E0.29429
G1 X18.437 Y14.730 E0.29519
G1 X18.787 Y14.657 E0.29599
G1 X19.150 Y14.620 E0.29679
G1 X19.458 Y14.652 E0.29748
G1 X19.771 Y14.770 E0.29822
G1 X20.043 Y15.006 E0.29902
G1 X20.273 Y15.471 E0.30017
G1 X20.379 Y16.312 E0.30205
G1 X20.351 Y16.579 E0.30264
G1 X20.273 Y16.834 E0.30323
G1 X20.160 Y17.065 E0.30380
G1 X20.031 Y17.253 E0.30430
G1 X19.915 Y17.383 E0.30469
G1 X19.196 Y17.962 E0.30674
G1 X19.782 Y18.000 F3000.000
G1 F60.000
G1 X20.189 Y18.328 E0.30777
G1 X20.345 Y18.501 E0.30824
G1 X20.504 Y18.735 E0.30880
G1 X20.644 Y19.020 E0.30943
G1 X20.742 Y19.342 E0.31010
G1 X20.779 Y19.692 E0.31080
G1 X20.658 Y20.645 E0.31270
G1 X20.364 Y21.241 E0.31402
G1 X19.977 Y21.577 E0.31504
G1 X19.550 Y21.738 E0.31595
G1 X19.146 Y21.779 E0.31675
G1 X18.850 Y21.759 E0.31734
G1 X18.291 Y21.645 E0.31847
G1 X17.848 Y21.386 E0.31949
G1 X17.367 Y20.954 E0.32078
G1 X16.858 Y20.367 E0.32232
G1 X16.324 Y19.645 E0.32410
G1 X15.767 Y18.811 E0.32610
G1 X15.260 Y18.000 E0.32800
G1 X15.767 Y17.189 E0.32989
G1 X16.324 Y16.355 E0.33189
G1 X16.858 Y15.633 E0.33367
G1 X17.367 Y15.046 E0.33521
G1 X17.848 Y14.614 E0.33650
G1 X18.292 Y14.355 E0.33752
G1 X18.726 Y14.264 E0.33840
G1 X19.150 Y14.221 E0.33924
G1 X19.550 Y14.262 E0.34004
G1 X19.977 Y14.423 E0.34095
G1 X20.364 Y14.759 E0.34197
G1 X20.658 Y15.355 E0.34329
G1 X20.779 Y16.308 E0.34519
G1 X20.742 Y16.658 E0.34589
G1 X20.644 Y16.980 E0.34656
G1 X20.504 Y17.265 E0.34719
G1 X20.345 Y17.499 E0.34776
G1 X20.189 Y17.672 E0.34822
G1 X19.829 Y17.962 E0.34914
G1 X19.514 Y18.297 F3000.000
G1 X19.399 Y17.292 F3000.000
G1 F120.000
G1 X19.872 Y16.819 E0.35070
G1 X19.960 Y16.691 E0.35106
G1 X20.045 Y16.516 E0.35151
G1 X20.102 Y16.332 E0.35196
G1 X20.120 Y16.154 E0.35238
G1 X20.097 Y15.970 E0.35281
G1 X16.789 Y19.278 E0.36373
G1 X16.543 Y18.899 E0.36479
G1 X20.023 Y15.419 E0.37627
G1 X19.868 Y15.104 E0.37709
G1 X19.785 Y15.033 E0.37735
G1 X16.297 Y18.521 E0.38886
G1 X16.065 Y18.163 E0.38986
G1 X16.128 Y18.066 E0.39013
G1 X19.315 Y14.879 E0.40065
G1 X19.014 Y14.908 E0.40135
G1 X18.752 Y14.964 E0.40198
G1 X18.494 Y15.114 E0.40268
G1 X18.115 Y15.455 E0.40387
G1 X17.789 Y15.780 E0.40494
G1 X18.761 Y17.930 F3000.000
G1 F120.000
G1 X17.051 Y19.640 E0.41058
G1 X17.317 Y19.999 E0.41163
G1 X19.106 Y18.209 E0.41753
G1 X19.452 Y18.488 E0.41857
G1 X17.606 Y20.334 E0.42467
G1 X17.787 Y20.544 E0.42531
G1 X17.910 Y20.654 E0.42570
G1 X19.796 Y18.768 E0.43192
G1 X19.960 Y18.984 E0.43256
G1 X20.041 Y19.148 E0.43298
G1 X18.253 Y20.936 E0.43888
G1 X18.423 Y21.035 E0.43934
G1 X18.718 Y21.095 E0.44005
G1 X20.095 Y19.718 E0.44459
G1 X20.029 Y20.244 E0.44583
G1 X19.868 Y20.569 E0.44668
G1 X19.541 Y20.896 E0.44776
G1 Z1.200 F3000.000
G1 X19.149 Y18.000 F3000.000
G1 F60.000
G1 X19.915 Y18.617 E0.44993
G1 X20.031 Y18.747 E0.45032
G1 X20.160 Y18.935 E0.45082
G1 X20.273 Y19.166 E0.45139
G1 X20.351 Y19.421 E0.45198
G1 X20.379 Y19.688 E0.45258
G1 X20.273 Y20.529 E0.45446
G1 X20.043 Y20.994 E0.45560
G1 X19.771 Y21.230 E0.45640
G1 X19.458 Y21.348 E0.45714
G1 X19.140 Y21.381 E0.45785
G1 X18.903 Y21.364 E0.45838
G1 X18.435 Y21.269 E0.45943
G1 X18.083 Y21.064 E0.46034
G1 X17.651 Y20.675 E0.46162
G1 X17.168 Y20.119 E0.46325
G1 X16.649 Y19.417 E0.46519
G1 X15.728 Y18.000 E0.46893
G1 X16.649 Y16.583 E0.47267
G1 X17.168 Y15.881 E0.47461
G1 X17.651 Y15.325 E0.47624
G1 X18.083 Y14.936 E0.47752
G1 X18.437 Y14.730 E0.47843
G1 X18.787 Y14.657 E0.47922
G1 X19.150 Y14.620 E0.48003
G1 X19.458 Y14.652 E0.48072
G1 X19.771 Y14.770 E0.48146
G1 X20.043 Y15.006 E0.48226
G1 X20.273 Y15.471 E0.48340
G1 X20.379 Y16.312 E0.48528
G1 X20.351 Y16.579 E0.48587
G1 X20.273 Y16.834 E0.48646
G1 X20.160 Y17.065 E0.48703
G1 X20.031 Y17.253 E0.48754
G1 X19.915 Y17.383 E0.48793
G1 X19.196 Y17.962 E0.48997
G1 X19.782 Y18.000 F3000.000
G1 F60.000
G1 X20.189 Y18.328 E0.49101
G1 X20.345 Y18.501 E0.49147
G1 X20.504 Y18.735 E0.49203
G1 X20.644 Y19.020 E0.49266
G1 X20.742 Y19.342 E0.49333
G1 X20.779 Y19.692 E0.49403
G1 X20.658 Y20.645 E0.49594
G1 X20.364 Y21.241 E0.49726
G1 X19.977 Y21.577 E0.49827
G1 X19.550 Y21.738 E0.49918
G1 X19.146 Y21.779 E0.49999
G1 X18.850 Y21.759 E0.50058
G1 X18.291 Y21.645 E0.50171
G1 X17.848 Y21.386 E0.50273
G1 X17.367 Y20.954 E0.50401
G1 X16.858 Y20.367 E0.50556
G1 X16.324 Y19.645 E0.50734
G1 X15.767 Y18.811 E0.50933
G1 X15.260 Y18.000 E0.51123
G1 X15.767 Y17.189 E0.51313
G1 X16.324 Y16.355 E0.51512
G1 X16.858 Y15.633 E0.51691
G1 X17.367 Y15.046 E0.51845
G1 X17.848 Y14.614 E0.51973
G1 X18.292 Y14.355 E0.52075
G1 X18.726 Y14.264 E0.52163
G1 X19.150 Y14.221 E0.52248
G1 X19.550 Y14.262 E0.52328
G1 X19.977 Y14.423 E0.52419
G1 X20.364 Y14.759 E0.52520
G1 X20.658 Y15.355 E0.52652
G1 X20.779 Y16.308 E0.52843
G1 X20.742 Y16.658 E0.52913
G1 X20.644 Y16.980 E0.52980
G1 X20.504 Y17.265 E0.53043
G1 X20.345 Y17.499 E0.53099
G1 X20.189 Y17.672 E0.53145
G1 X19.829 Y17.962 E0.53237
G1 X19.514 Y18.297 F3000.000
G1 X20.095 Y16.282 F3000.000
G1 F120.000
G1 X18.719 Y14.905 E0.53692
G1 X18.426 Y14.964 E0.53761
G1 X18.253 Y15.064 E0.53808
G1 X20.041 Y16.852 E0.54398
G1 X19.960 Y17.016 E0.54441
G1 X19.796 Y17.232 E0.54504
G1 X17.910 Y15.346 E0.55126
G1 X17.787 Y15.456 E0.55165
G1 X17.605 Y15.666 E0.55230
G1 X19.452 Y17.512 E0.55839
G1 X19.106 Y17.791 E0.55943
G1 X17.317 Y16.001 E0.56534
G1 X17.051 Y16.360 E0.56638
G1 X18.761 Y18.070 E0.57202
G1 X18.645 Y18.163 E0.57237
G1 X19.725 Y19.034 E0.57561
G1 X19.872 Y19.181 E0.57609
G1 X20.045 Y19.484 E0.57691
G1 X20.102 Y19.668 E0.57736
G1 X20.120 Y19.846 E0.57777
G1 X20.097 Y20.030 E0.57821
G1 X16.789 Y16.722 E0.58913
G1 X16.543 Y17.101 E0.59018
G1 X20.023 Y20.581 E0.60167
G1 X19.868 Y20.896 E0.60249
G1 X19.785 Y20.967 E0.60274
G1 X16.297 Y17.479 E0.61425
G1 X16.065 Y17.837 E0.61525
G1 X16.128 Y17.934 E0.61552
G1 X19.315 Y21.121 E0.62604
G1 X19.123 Y21.111 E0.62649
G1 X18.749 Y21.035 E0.62738
G1 X18.494 Y20.886 E0.62807
G1 X18.115 Y20.545 E0.62926
G1 X17.786 Y20.217 E0.63034
G1 X19.868 Y15.431 F3000.000
G1 F120.000
G1 X19.542 Y15.105 E0.63142
G1 Z1.500 F3000.000
G1 X19.149 Y18.000 F3000.000
G1 F60.000
G1 X19.915 Y18.617 E0.63360
G1 X20.031 Y18.747 E0.63398
G1 X20.160 Y18.935 E0.63449
G1 X20.273 Y19.166 E0.63506
G1 X20.351 Y19.421 E0.63565
G1 X20.379 Y19.688 E0.63624
G1 X20.273 Y20.529 E0.63812
G1 X20.043 Y20.994 E0.63927
G1 X19.771 Y21.230 E0.64007
G1 X19.458 Y21.348 E0.64080
G1 X19.140 Y21.381 E0.64151
G1 X18.903 Y21.364 E0.64204
G1 X18.435 Y21.269 E0.64310
G1 X18.083 Y21.064 E0.64400
G1 X17.651 Y20.675 E0.64529
G1 X17.168 Y20.119 E0.64692
G1 X16.649 Y19.417 E0.64885
G1 X15.728 Y18.000 E0.65259
G1 X16.649 Y16.583 E0.65634
G1 X17.168 Y15.881 E0.65827
G1 X17.651 Y15.325 E0.65990
G1 X18.083 Y14.936 E0.66119
G1 X18.437 Y14.730 E0.66209
G1 X18.787 Y14.657 E0.66288
G1 X19.150 Y14.620 E0.66369
G1 X19.458 Y14.652 E0.66438
G1 X19.771 Y14.770 E0.66512
G1 X20.043 Y15.006 E0.66592
G1 X20.273 Y15.471 E0.66707
G1 X20.379 Y16.312 E0.66894
G1 X20.351 Y16.579 E0.66954
G1 X20.273 Y16.834 E0.67013
G1 X20.160 Y17.065 E0.67070
G1 X20.031 Y17.253 E0.67120
