; generated by Slic3r 1.3.1-dev (Build 18ddd3a36dc69d81fb9b7440498bff9e1dde8b7e) on 2023-01-23 at 15:00:44

; external perimeters extrusion width = 0.44mm (0.00mm^3/s)
; perimeters extrusion width = 0.48mm (0.00mm^3/s)
; infill extrusion width = 0.48mm (0.63mm^3/s)
; solid infill extrusion width = 0.48mm (0.25mm^3/s)
; top infill extrusion width = 0.48mm (0.25mm^3/s)

G92 E0
M104 S20 ; set temperature
;G28 ; home all axes
g1 z25 f5000
g28 x0
g28 y0
;G1 Z5 F5000 ; lift nozzle
G1 X13 Y5 F4000
G28 Z0

; Filament gcode

M109 S20 ; set temperature and wait for it to be reached
G21 ; set units to millimeters
G90 ; use absolute coordinates
M82 ; use absolute distances for extrusion
G92 E0
G1 Z0.300 F3000.000
G1 X9.914 Y11.624 F3000.000
G1 F120.000
G1 X11.663 Y10.165 E0.00645
G1 X12.751 Y9.668 E0.00984
G1 X16.571 Y8.331 E0.02130
G1 X18.819 Y7.965 E0.02775
G1 X21.056 Y8.392 E0.03420
G1 X23.011 Y9.562 E0.04065
G1 X24.149 Y10.846 E0.04550
G1 X26.509 Y14.346 E0.05746
G1 X27.434 Y16.428 E0.06391
G1 X27.588 Y18.700 E0.07036
G1 X26.509 Y21.654 E0.07926
G1 X24.149 Y25.154 E0.09122
G1 X22.566 Y26.792 E0.09767
G1 X20.517 Y27.787 E0.10412
G1 X18.251 Y28.018 E0.11057
G1 X16.571 Y27.669 E0.11543
G1 X12.751 Y26.332 E0.12689
G1 X10.765 Y25.216 E0.13334
G1 X9.283 Y23.487 E0.13979
G1 X8.484 Y21.354 E0.14624
G1 X8.374 Y20.163 E0.14962
G1 X8.374 Y15.837 E0.16187
G1 X8.771 Y13.594 E0.16832
G1 X9.884 Y11.675 E0.17460
G92 E0
G1 X18.142 Y19.605 F3000.000
G1 F120.000
G1 X17.453 Y18.844 E0.00291
G1 X16.388 Y19.040 E0.00598
G1 X16.896 Y18.000 E0.00925
G1 X16.388 Y16.960 E0.01253
G1 X17.453 Y17.156 E0.01560
G1 X18.142 Y16.395 E0.01851
G1 X18.285 Y17.454 E0.02154
G1 X19.311 Y18.000 E0.02483
G1 X18.285 Y18.546 E0.02811
G1 X18.150 Y19.546 E0.03097
G1 X18.519 Y20.820 F3000.000
G1 F120.000
G1 X17.256 Y19.425 E0.03630
G1 X15.441 Y19.760 E0.04153
G1 X16.300 Y18.000 E0.04708
G1 X15.441 Y16.240 E0.05262
G1 X17.256 Y16.575 E0.05785
G1 X18.519 Y15.180 E0.06318
G1 X18.779 Y17.111 E0.06869
G1 X20.451 Y18.000 E0.07406
G1 X18.779 Y18.889 E0.07942
G1 X18.527 Y20.760 E0.08477
G1 X18.405 Y20.437 F3000.000
G92 E0
G1 X17.962 Y18.208 F3000.000
G1 F120.000
G1 X18.378 Y17.792 E0.00200
G1 X17.752 Y17.509 F3000.000
G1 F120.000
G1 X17.208 Y18.053 E0.00462
G1 Z0.600 F3000.000
G1 X18.296 Y20.101 F3000.000
G1 F60.000
G1 X17.373 Y19.080 E0.00766
G1 X16.002 Y19.334 E0.01075
G1 X16.653 Y18.000 E0.01404
G1 X16.002 Y16.666 E0.01732
G1 X17.373 Y16.920 E0.02041
G1 X18.296 Y15.899 E0.02346
G1 X18.487 Y17.314 E0.02662
G1 X19.776 Y18.000 E0.02985
G1 X18.487 Y18.686 E0.03308
G1 X18.304 Y20.041 E0.03611
G1 X18.575 Y21.001 F3000.000
G1 F60.000
G1 X17.227 Y19.511 E0.04010
G1 X15.299 Y19.867 E0.04400
G1 X16.211 Y18.000 E0.04812
G1 X15.299 Y16.133 E0.05225
G1 X17.227 Y16.489 E0.05614
G1 X18.575 Y14.999 E0.06013
G1 X18.853 Y17.059 E0.06426
G1 X20.622 Y18.000 E0.06824
G1 X18.853 Y18.941 E0.07222
G1 X18.583 Y20.942 E0.07623
G1 X18.461 Y20.618 F3000.000
G1 X16.906 Y18.934 F3000.000
G1 F120.000
G1 X16.580 Y18.608 E0.07732
G1 X16.788 Y18.180 E0.07845
G1 X17.443 Y18.835 E0.08065
G1 X17.689 Y18.789 E0.08125
G1 X18.164 Y19.314 E0.08293
G1 X18.211 Y18.967 E0.08376
G1 X16.837 Y17.593 E0.08838
G1 X16.580 Y17.066 E0.08978
G1 X17.029 Y17.149 E0.09086
G1 X18.391 Y18.511 E0.09545
G1 X18.807 Y18.291 E0.09656
G1 X17.536 Y17.020 E0.10084
G1 X17.838 Y16.686 E0.10191
G1 X18.164 Y17.012 E0.10300
G1 Z0.900 F3000.000
G1 X18.296 Y20.101 F3000.000
G1 F60.000
G1 X17.373 Y19.080 E0.10605
G1 X16.002 Y19.334 E0.10914
G1 X16.653 Y18.000 E0.11242
G1 X16.002 Y16.666 E0.11571
G1 X17.373 Y16.920 E0.11880
G1 X18.296 Y15.899 E0.12184
G1 X18.487 Y17.314 E0.12500
G1 X19.776 Y18.000 E0.12824
G1 X18.487 Y18.686 E0.13147
G1 X18.304 Y20.041 E0.13450
G1 X18.575 Y21.001 F3000.000
G1 F60.000
G1 X17.227 Y19.511 E0.13849
G1 X15.299 Y19.867 E0.14238
G1 X16.211 Y18.000 E0.14651
G1 X15.299 Y16.133 E0.15064
G1 X17.227 Y16.489 E0.15453
G1 X18.575 Y14.999 E0.15852
G1 X18.853 Y17.059 E0.16265
G1 X20.622 Y18.000 E0.16663
G1 X18.853 Y18.941 E0.17060
G1 X18.583 Y20.942 E0.17461
G1 X18.461 Y20.618 F3000.000
G1 X17.838 Y19.314 F3000.000
G1 F120.000
G1 X18.164 Y18.988 E0.17571
G1 X18.263 Y18.254 E0.17747
G1 X19.047 Y17.837 E0.17958
G1 X18.807 Y17.709 E0.18023
G1 X17.536 Y18.980 E0.18450
G1 X17.363 Y18.789 E0.18511
G1 X17.029 Y18.851 E0.18592
G1 X18.391 Y17.489 E0.19050
G1 X18.263 Y17.420 E0.19085
G1 X18.211 Y17.033 E0.19177
G1 X16.837 Y18.407 E0.19639
G1 X16.956 Y18.163 E0.19704
G1 X16.788 Y17.820 E0.19795
G1 X17.443 Y17.165 E0.20015
G1 X16.906 Y17.066 E0.20145
G1 X16.580 Y17.392 E0.20254
G1 Z1.200 F3000.000
G1 X18.296 Y20.101 F3000.000
G1 F60.000
G1 X17.373 Y19.080 E0.20559
G1 X16.002 Y19.334 E0.20868
G1 X16.653 Y18.000 E0.21196
G1 X16.002 Y16.666 E0.21525
G1 X17.373 Y16.920 E0.21834
G1 X18.296 Y15.899 E0.22138
G1 X18.487 Y17.314 E0.22454
G1 X19.776 Y18.000 E0.22778
G1 X18.487 Y18.686 E0.23101
G1 X18.304 Y20.041 E0.23404
G1 X18.575 Y21.001 F3000.000
G1 F60.000
G1 X17.227 Y19.511 E0.23803
G1 X15.299 Y19.867 E0.24192
G1 X16.211 Y18.000 E0.24605
G1 X15.299 Y16.133 E0.25018
G1 X17.227 Y16.489 E0.25407
G1 X18.575 Y14.999 E0.25806
G1 X18.853 Y17.059 E0.26219
G1 X20.622 Y18.000 E0.26617
G1 X18.853 Y18.941 E0.27014
G1 X18.583 Y20.942 E0.27415
G1 X18.461 Y20.618 F3000.000
G1 X16.906 Y18.934 F3000.000
G1 F120.000
G1 X16.580 Y18.608 E0.27525
G1 X16.788 Y18.180 E0.27638
G1 X17.443 Y18.835 E0.27858
G1 X17.689 Y18.789 E0.27918
G1 X18.164 Y19.314 E0.28086
G1 X18.211 Y18.967 E0.28169
G1 X16.837 Y17.593 E0.28631
G1 X16.580 Y17.066 E0.28770
G1 X17.029 Y17.149 E0.28879
G1 X18.391 Y18.511 E0.29337
G1 X18.807 Y18.291 E0.29449
G1 X17.536 Y17.020 E0.29876
G1 X17.838 Y16.686 E0.29983
G1 X18.164 Y17.012 E0.30093
G1 Z1.500 F3000.000
G1 X18.296 Y20.101 F3000.000
G1 F60.000
G1 X17.373 Y19.080 E0.30397
G1 X16.002 Y19.334 E0.30706
G1 X16.653 Y18.000 E0.31035
G1 X16.002 Y16.666 E0.31363
G1 X17.373 Y16.920 E0.31672
G1 X18.296 Y15.899 E0.31977
G1 X18.487 Y17.314 E0.32293
G1 X19.776 Y18.000 E0.32616
G1 X18.487 Y18.686 E0.32940
G1 X18.304 Y20.041 E0.33243
G1 X18.575 Y21.001 F3000.000
G1 F60.000
G1 X17.227 Y19.511 E0.33642
G1 X15.299 Y19.867 E0.34031
G1 X16.211 Y18.000 E0.34444
G1 X15.299 Y16.133 E0.34856
G1 X17.227 Y16.489 E0.35245
G1 X18.575 Y14.999 E0.35645
G1 X18.853 Y17.059 E0.36057
G1 X20.622 Y18.000 E0.36455
G1 X18.853 Y18.941 E0.36853
G1 X18.583 Y20.942 E0.37254
G1 X18.461 Y20.618 F3000.000
G1 X17.838 Y19.314 F3000.000
G1 F120.000
G1 X18.164 Y18.988 E0.37363
G1 X18.263 Y18.254 E0.37540
G1 X19.047 Y17.837 E0.37751
G1 X18.807 Y17.709 E0.37815
G1 X17.536 Y18.980 E0.38242
G1 X17.363 Y18.789 E0.38304
G1 X17.029 Y18.851 E0.38384
G1 X18.391 Y17.489 E0.38842
G1 X18.263 Y17.420 E0.38877
G1 X18.211 Y17.033 E0.38970
G1 X16.837 Y18.407 E0.39432
G1 X16.956 Y18.163 E0.39497
G1 X16.788 Y17.820 E0.39587
G1 X17.443 Y17.165 E0.39807
G1 X16.906 Y17.066 E0.39937
G1 X16.580 Y17.392 E0.40047
G1 Z1.800 F3000.000
G1 X18.296 Y20.101 F3000.000
G1 F60.000
G1 X17.373 Y19.080 E0.40351
G1 X16.002 Y19.334 E0.40660
G1 X16.653 Y18.000 E0.40989
G1 X16.002 Y16.666 E0.41317
G1 X17.373 Y16.920 E0.41626
G1 X18.296 Y15.899 E0.41931
G1 X18.487 Y17.314 E0.42247
G1 X19.776 Y18.000 E0.42570
G1 X18.487 Y18.686 E0.42894
G1 X18.304 Y20.041 E0.43196
G1 X18.575 Y21.001 F3000.000
G1 F60.000
G1 X17.227 Y19.511 E0.43596
G1 X15.299 Y19.867 E0.43985
G1 X16.211 Y18.000 E0.44397
G1 X15.299 Y16.133 E0.44810
G1 X17.227 Y16.489 E0.45199
G1 X18.575 Y14.999 E0.45598
G1 X18.853 Y17.059 E0.46011
G1 X20.622 Y18.000 E0.46409
G1 X18.853 Y18.941 E0.46807
G1 X18.583 Y20.942 E0.47208
G1 X18.461 Y20.618 F3000.000
G1 X16.906 Y18.934 F3000.000
G1 F120.000
G1 X16.580 Y18.608 E0.47317
G1 X16.788 Y18.180 E0.47430
G1 X17.443 Y18.835 E0.47650
G1 X17.689 Y18.789 E0.47710
G1 X18.164 Y19.314 E0.47878
G1 X18.211 Y18.967 E0.47962
G1 X16.837 Y17.593 E0.48424
G1 X16.580 Y17.066 E0.48563
G1 X17.029 Y17.149 E0.48672
G1 X18.391 Y18.511 E0.49130
G1 X18.807 Y18.291 E0.49241
G1 X17.536 Y17.020 E0.49669
G1 X17.838 Y16.686 E0.49776
G1 X18.164 Y17.012 E0.49885
G1 Z2.100 F3000.000
G92 E0
G1 X18.296 Y20.101 F3000.000
G1 F60.000
G1 X17.373 Y19.080 E0.00305
G1 X16.002 Y19.334 E0.00613
G1 X16.653 Y18.000 E0.00942
G1 X16.002 Y16.666 E0.01271
G1 X17.373 Y16.920 E0.01579
G1 X18.296 Y15.899 E0.01884
G1 X18.487 Y17.314 E0.02200
G1 X19.776 Y18.000 E0.02524
G1 X18.487 Y18.686 E0.02847
G1 X18.304 Y20.041 E0.03150
G1 X18.575 Y21.001 F3000.000
G1 F60.000
G1 X17.227 Y19.511 E0.03549
G1 X15.299 Y19.867 E0.03938
G1 X16.211 Y18.000 E0.04351
G1 X15.299 Y16.133 E0.04763
G1 X17.227 Y16.489 E0.05153
G1 X18.575 Y14.999 E0.05552
G1 X18.853 Y17.059 E0.05965
G1 X20.622 Y18.000 E0.06362
G1 X18.853 Y18.941 E0.06760
G1 X18.583 Y20.942 E0.07161
G1 X18.461 Y20.618 F3000.000
G1 X17.838 Y19.314 F3000.000
G1 F120.000
G1 X18.164 Y18.988 E0.07271
G1 X18.263 Y18.254 E0.07447
G1 X19.047 Y17.837 E0.07658
G1 X18.807 Y17.709 E0.07723
G1 X17.536 Y18.980 E0.08150
G1 X17.363 Y18.789 E0.08211
G1 X17.029 Y18.851 E0.08292
G1 X18.391 Y17.489 E0.08750
G1 X18.263 Y17.420 E0.08784
G1 X18.211 Y17.033 E0.08877
G1 X16.837 Y18.407 E0.09339
G1 X16.956 Y18.163 E0.09404
G1 X16.788 Y17.819 E0.09495
G1 X17.443 Y17.165 E0.09715
G1 X16.906 Y17.066 E0.09844
G1 X16.580 Y17.392 E0.09954
G92 E0
; Filament-specific end gcode 
;END gcode for filament

M104 S0 ; turn off temperature
;G28 X0  ; home X axis
M84     ; disable motors
G1 Z25 F5000
M140 S0 ; set bed temperature
; cog_x = 17.672845
; cog_y = 17.999107
; cog_z = 1.085747
; filament_length_m = 0.0009 
; filament_volume_cm3 = 0.0487
; total_filament_cost = 0.0

; avoid_crossing_perimeters = 0
; bed_shape = 0x0,36x0,36x36,0x36
; bed_temperature = 0
; before_layer_gcode = 
; between_objects_gcode = 
; bridge_acceleration = 0
; bridge_fan_speed = 100
; brim_connections_width = 0
; brim_ears = 0
; brim_ears_max_angle = 125
; brim_width = 0
; complete_objects = 0
; cooling = 0
; default_acceleration = 0
; disable_fan_first_layers = 3
; duplicate_distance = 6
; end_filament_gcode = "; Filament-specific end gcode \n;END gcode for filament\n"
; end_gcode = M104 S0 ; turn off temperature\n;G28 X0  ; home X axis\nM84     ; disable motors\nG1 Z25 F5000
; extruder_clearance_height = 20
; extruder_clearance_radius = 20
; extruder_offset = 0x0
; extrusion_axis = E
; extrusion_multiplier = 1
; fan_always_on = 0
; fan_below_layer_time = 60
; fan_percentage = 0
; filament_colour = #FFFFFF
; filament_cost = 0
; filament_density = 0
; filament_diameter = 8.5
; filament_max_volumetric_speed = 0
; filament_notes = ""
; first_layer_acceleration = 0
; first_layer_bed_temperature = 0
; first_layer_extrusion_width = 200%
; first_layer_speed = 2
; first_layer_temperature = 20
; gcode_arcs = 0
; gcode_comments = 0
; gcode_flavor = repetier
; has_heatbed = 1
; infill_acceleration = 0
; infill_first = 0
; interior_brim_width = 0
; label_printed_objects = 0
; layer_gcode = 
; max_fan_speed = 100
; max_layer_height = 0.4
; max_print_speed = 15
; max_volumetric_speed = 0
; min_fan_speed = 35
; min_layer_height = 0.05
; min_print_speed = 10
; min_skirt_length = 0
; notes = 
; nozzle_diameter = 0.4
; only_retract_when_crossing_perimeters = 1
; ooze_prevention = 0
; output_filename_format = [input_filename_base].gcode
; perimeter_acceleration = 0
; post_process = 
; pressure_advance = 0
; printer_notes = 
; resolution = 0
; retract_before_travel = 2
; retract_layer_change = 0
; retract_length = 0
; retract_length_toolchange = 10
; retract_lift = 0
; retract_lift_above = 0
; retract_lift_below = 0
; retract_restart_extra = 0
; retract_restart_extra_toolchange = 0
; retract_speed = 40
; skirt_distance = 6
; skirt_height = 1
; skirts = 1
; slowdown_below_layer_time = 5
; spiral_vase = 0
; standby_temperature_delta = -5
; start_filament_gcode = "; Filament gcode\n"
; start_gcode = ;G28 ; home all axes\ng1 z25 f5000\ng28 x0\ng28 y0\n;G1 Z5 F5000 ; lift nozzle\nG1 X13 Y5 F4000\nG28 Z0\n
; temperature = 20
; threads = 4
; toolchange_gcode = 
; travel_speed = 50
; use_firmware_retraction = 0
; use_relative_e_distances = 0
; use_set_and_wait_bed = 0
; use_set_and_wait_extruder = 0
; use_volumetric_e = 0
; vibration_limit = 0
; wipe = 0
; z_offset = 0
; z_steps_per_mm = 0
; adaptive_slicing = 0
; adaptive_slicing_quality = 75%
; dont_support_bridges = 1
; extrusion_width = 0
; first_layer_height = 0.3
; infill_only_where_needed = 0
; interface_shells = 0
; layer_height = 0.3
; match_horizontal_surfaces = 0
; raft_layers = 0
; regions_overlap = 0
; seam_position = aligned
; sequential_print_priority = 0
; support_material = 0
; support_material_angle = 0
; support_material_buildplate_only = 0
; support_material_contact_distance = 0.2
; support_material_enforce_layers = 0
; support_material_extruder = 1
; support_material_extrusion_width = 0
; support_material_interface_extruder = 1
; support_material_interface_extrusion_width = 0
; support_material_interface_layers = 3
; support_material_interface_spacing = 0
; support_material_interface_speed = 100%
; support_material_max_layers = 0
; support_material_pattern = pillars
; support_material_pillar_size = 2.5
; support_material_pillar_spacing = 10
; support_material_spacing = 2.5
; support_material_speed = 0
; support_material_threshold = 60%
; xy_size_compensation = 0
; bottom_infill_pattern = rectilinear
; bottom_solid_layers = 2
; bridge_flow_ratio = 1
; bridge_speed = 5
; external_perimeter_extrusion_width = 0
; external_perimeter_speed = 0
; external_perimeters_first = 0
; extra_perimeters = 1
; fill_angle = 45
; fill_density = 100%
; fill_gaps = 0
; fill_pattern = rectilinear
; gap_fill_speed = 2
; infill_every_layers = 1
; infill_extruder = 1
; infill_extrusion_width = 0
; infill_overlap = 55%
; infill_speed = 5
; min_shell_thickness = 0
; min_top_bottom_shell_thickness = 0
; overhangs = 1
; perimeter_extruder = 1
; perimeter_extrusion_width = 0
; perimeter_speed = 0
; perimeters = 2
; small_perimeter_speed = 1
; solid_infill_below_area = 10
; solid_infill_every_layers = 1
; solid_infill_extruder = 1
; solid_infill_extrusion_width = 0
; solid_infill_speed = 2
; thin_walls = 1
; top_infill_extrusion_width = 0
; top_infill_pattern = rectilinear
; top_solid_infill_speed = 2
; top_solid_layers = 2

